X: 10762
T: COTILLION No. 5. tune 2
C:
%R: jig
B: Elias Howe "The Musician's Companion" Part 1 1842 p.76 #2
S: http://imslp.org/wiki/The_Musician's_Companion_(Howe,_Elias)
Z: 2015 John Chambers <jc:trillian.mit.edu>
M: 6/8
L: 1/8
K: D
% - - - - - - - - - - - - - - - - - - - - - - - - -
f |\
d2f def | g3 e2d | cde ABc | dfa A2f |\
d2f def | g3 e2d | cde ABc | (e3 d2) H|]
A |\
FGA ABc | d2e f2g | ecA ABc | dfa ABG |\
FGA ABc | d2e f2g | ecA A>Bc/d/ | (e3 "^D.C."d2) |]
f |\
f3 efg | f2e d2e | f2e {f}edc | {e}dcd B>cd/e/ |\
f3 efg | f2e d2e | {g}fed cB^A | (c3 "^D.C."B2) |]
% - - - - - - - - - - Dance description - - - - - - - - - -
%%begintext align
%% First 4 lead to right,
%% chassa out,
%% form lines across the hall,
%% all right and left across the hall,
%% ladies all chain across the hall,
%% all forward and back,
%% swing partners to place,
%% side couples the same.
%%endtext
%- - - - - - - - - - - - - - - - - - - - - - - - -
%%sep 1 1 300


